daeta/img/post2.svg

<svg width="245" height="209" viewBox="0 0 245 209" fill="none" xmlns="http://www.w3.org/2000/svg">
<g opacity="0.44" clip-path="url(#clip0_1_445)">
<g opacity="0.9">
<path d="M404.751 82.451C408.456 30.9828 321.135 -17.2816 209.713 -25.3506C98.291 -33.4197 4.96183 1.76231 1.25631 53.2305C-2.44921 104.699 84.8721 152.963 196.294 161.032C307.716 169.101 401.045 133.919 404.751 82.451Z" stroke="url(#paint0_linear_1_445)" stroke-width="0.8" stroke-miterlimit="10"/>
<path d="M397.333 71.7231C398.787 21.4064 311.64 -21.9506 202.684 -25.1174C93.728 -28.2843 4.22327 9.93822 2.76932 60.2549C1.31538 110.572 88.4628 153.929 197.419 157.095C306.374 160.262 395.879 122.04 397.333 71.7231Z" stroke="url(#paint1_linear_1_445)" stroke-width="0.8" stroke-miterlimit="10"/>
<path d="M198.591 153.207C305.073 151.473 390.748 110.201 389.952 61.0239C389.157 11.8463 302.191 -26.6147 195.709 -24.8811C89.2269 -23.1475 3.55151 18.1241 4.34748 67.3017C5.14345 116.479 92.1093 154.94 198.591 153.207Z" stroke="url(#paint2_linear_1_445)" stroke-width="0.8" stroke-miterlimit="10"/>
<path d="M199.767 149.296C303.768 142.66 385.607 98.334 382.559 50.2901C379.512 2.24628 292.732 -31.3219 188.732 -24.6864C84.7311 -18.051 2.89229 26.2754 5.9397 74.3192C8.98711 122.363 95.7667 155.931 199.767 149.296Z" stroke="url(#paint3_linear_1_445)" stroke-width="0.8" stroke-miterlimit="10"/>
<path d="M200.87 145.352C302.399 133.823 380.413 86.4618 375.119 39.5688C369.825 -7.32427 283.228 -35.9919 181.698 -24.4623C80.1691 -12.9326 2.15502 34.4284 7.44914 81.3214C12.7433 128.214 99.3408 156.882 200.87 145.352Z" stroke="url(#paint4_linear_1_445)" stroke-width="0.8" stroke-miterlimit="10"/>
<path d="M202.004 141.448C301.071 125.018 375.266 74.6106 367.723 28.8611C360.179 -16.8884 273.754 -40.6559 174.686 -24.2251C75.6188 -7.79438 1.4238 42.6127 8.96728 88.3622C16.5108 134.112 102.936 157.879 202.004 141.448Z" stroke="url(#paint5_linear_1_445)" stroke-width="0.8" stroke-miterlimit="10"/>
<path d="M203.163 137.54C299.749 116.206 370.107 62.7514 360.312 18.1449C350.517 -26.4616 264.278 -45.3282 167.693 -23.9947C71.1068 -2.66133 0.74902 50.7935 10.544 95.4C20.339 140.007 106.578 158.873 203.163 137.54Z" stroke="url(#paint6_linear_1_445)" stroke-width="0.8" stroke-miterlimit="10"/>
<path d="M204.308 133.637C298.428 107.406 364.963 50.8974 352.917 7.4225C340.871 -36.0524 254.806 -50.0308 160.686 -23.7992C66.5653 2.43236 0.030743 58.9406 12.0766 102.415C24.1225 145.89 110.187 159.869 204.308 133.637Z" stroke="url(#paint7_linear_1_445)" stroke-width="0.8" stroke-miterlimit="10"/>
<path d="M205.479 129.685C297.118 98.5409 359.811 38.9771 345.508 -3.35399C331.205 -45.6851 245.323 -54.7535 153.684 -23.609C62.0455 7.53556 -0.64743 67.0993 13.6554 109.43C27.9583 151.761 113.841 160.83 205.479 129.685Z" stroke="url(#paint8_linear_1_445)" stroke-width="0.8" stroke-miterlimit="10"/>
<path d="M206.597 125.762C295.77 89.7186 354.646 27.1193 338.1 -14.0577C321.553 -55.2348 235.851 -59.3967 146.677 -23.3536C57.504 12.6895 -1.37167 75.2888 15.1747 116.466C31.7211 157.643 117.424 161.805 206.597 125.762Z" stroke="url(#paint9_linear_1_445)" stroke-width="0.8" stroke-miterlimit="10"/>
<path d="M207.715 121.842C294.415 80.906 349.464 15.2636 330.67 -24.7744C311.876 -64.8125 226.356 -64.0845 139.656 -23.1485C52.9562 17.7875 -2.0926 83.4299 16.7014 123.468C35.4953 163.506 121.015 162.778 207.715 121.842Z" stroke="url(#paint10_linear_1_445)" stroke-width="0.8" stroke-miterlimit="10"/>
<path d="M208.89 117.941C293.112 72.0971 344.326 3.40333 323.279 -35.4907C302.232 -74.3847 216.893 -68.7505 132.671 -22.9065C48.4479 22.9376 -2.76593 91.6314 18.2814 130.525C39.3286 169.419 124.667 163.785 208.89 117.941Z" stroke="url(#paint11_linear_1_445)" stroke-width="0.8" stroke-miterlimit="10"/>
<path d="M210.012 114.022C291.767 63.2821 339.159 -8.45435 315.866 -46.206C292.573 -83.9576 207.415 -73.4286 125.66 -22.6889C43.9045 28.0509 -3.48824 99.7873 19.8049 137.539C43.0981 175.291 128.257 164.762 210.012 114.022Z" stroke="url(#paint12_linear_1_445)" stroke-width="0.8" stroke-miterlimit="10"/>
<path d="M211.175 110.047C290.457 54.392 334.018 -20.399 308.472 -57.0029C282.926 -93.6069 197.946 -78.1627 118.665 -22.5073C39.3836 33.148 -4.17756 107.939 21.3685 144.543C46.9145 181.147 131.894 165.703 211.175 110.047Z" stroke="url(#paint13_linear_1_445)" stroke-width="0.8" stroke-miterlimit="10"/>
<path d="M212.318 106.167C289.13 45.6106 328.867 -32.2279 301.073 -67.6897C273.278 -103.152 188.478 -82.8081 111.666 -22.2513C34.8543 38.3055 -4.88237 116.144 22.9119 151.606C50.7061 187.068 135.506 166.724 212.318 106.167Z" stroke="url(#paint14_linear_1_445)" stroke-width="0.8" stroke-miterlimit="10"/>
<path d="M213.436 102.256C287.771 36.8065 323.674 -44.0769 293.628 -78.4018C263.583 -112.727 178.965 -87.4947 104.63 -22.0448C30.2955 43.4052 -5.60785 124.289 24.438 158.614C54.4839 192.938 139.101 167.706 213.436 102.256Z" stroke="url(#paint15_linear_1_445)" stroke-width="0.8" stroke-miterlimit="10"/>
<path d="M214.6 98.3313C286.464 27.9722 318.539 -55.9642 286.241 -89.1458C253.944 -122.327 169.505 -92.1891 97.6408 -21.83C25.7768 48.5291 -6.29834 132.465 25.999 165.647C58.2963 198.829 142.736 168.69 214.6 98.3313Z" stroke="url(#paint16_linear_1_445)" stroke-width="0.8" stroke-miterlimit="10"/>
<path d="M215.768 94.4064C285.161 19.1439 313.409 -67.8424 278.861 -99.8829C244.313 -131.923 160.052 -96.885 90.659 -21.6225C21.2659 53.64 -6.9817 140.626 27.5662 172.667C62.1141 204.707 146.375 169.669 215.768 94.4064Z" stroke="url(#paint17_linear_1_445)" stroke-width="0.8" stroke-miterlimit="10"/>
<path d="M216.88 90.4931C283.802 10.3345 308.229 -79.6927 271.438 -110.588C234.648 -141.484 150.572 -101.548 83.6497 -21.3899C16.7276 58.7686 -7.69875 148.796 29.0919 179.691C65.8825 210.587 149.958 170.652 216.88 90.4931Z" stroke="url(#paint18_linear_1_445)" stroke-width="0.8" stroke-miterlimit="10"/>
<path d="M217.985 86.5452C282.427 1.49082 303.023 -91.5746 263.989 -121.322C224.955 -151.07 141.072 -106.235 76.6305 -21.1804C12.1892 63.874 -8.40739 156.939 30.6267 186.687C69.6608 216.435 153.544 171.6 217.985 86.5452Z" stroke="url(#paint19_linear_1_445)" stroke-width="0.8" stroke-miterlimit="10"/>
<path d="M219.19 82.6478C281.157 -7.30769 297.916 -103.426 256.622 -132.039C215.328 -160.652 131.619 -110.924 69.6511 -20.9688C7.68373 68.9868 -9.07541 165.106 32.2186 193.718C73.5125 222.331 157.222 172.603 219.19 82.6478Z" stroke="url(#paint20_linear_1_445)" stroke-width="0.8" stroke-miterlimit="10"/>
<path d="M220.306 78.7604C279.819 -16.0939 292.772 -115.261 249.238 -142.735C205.703 -170.208 122.168 -115.586 62.6552 -20.7314C3.14281 74.1229 -9.81018 173.29 33.7239 200.764C77.2581 228.237 160.794 173.615 220.306 78.7604Z" stroke="url(#paint21_linear_1_445)" stroke-width="0.8" stroke-miterlimit="10"/>
</g>
</g>
<defs>
<linearGradient id="paint0_linear_1_445" x1="1.25631" y1="53.2305" x2="404.763" y2="82.2815" gradientUnits="userSpaceOnUse">
<stop stop-color="#787878"/>
<stop offset="1" stop-color="#B4B4B4"/>
</linearGradient>
<linearGradient id="paint1_linear_1_445" x1="2.76932" y1="60.2549" x2="397.335" y2="71.6563" gradientUnits="userSpaceOnUse">
<stop stop-color="#787878"/>
<stop offset="1" stop-color="#B4B4B4"/>
</linearGradient>
<linearGradient id="paint2_linear_1_445" x1="195.709" y1="-24.8811" x2="198.608" y2="153.206" gradientUnits="userSpaceOnUse">
<stop stop-color="#787878"/>
<stop offset="1" stop-color="#B4B4B4"/>
</linearGradient>
<linearGradient id="paint3_linear_1_445" x1="188.732" y1="-24.6864" x2="199.832" y2="149.292" gradientUnits="userSpaceOnUse">
<stop stop-color="#787878"/>
<stop offset="1" stop-color="#B4B4B4"/>
</linearGradient>
<linearGradient id="paint4_linear_1_445" x1="181.698" y1="-24.4623" x2="200.981" y2="145.34" gradientUnits="userSpaceOnUse">
<stop stop-color="#787878"/>
<stop offset="1" stop-color="#B4B4B4"/>
</linearGradient>
<linearGradient id="paint5_linear_1_445" x1="174.686" y1="-24.2251" x2="202.16" y2="141.423" gradientUnits="userSpaceOnUse">
<stop stop-color="#787878"/>
<stop offset="1" stop-color="#B4B4B4"/>
</linearGradient>
<linearGradient id="paint6_linear_1_445" x1="167.693" y1="-23.9947" x2="203.362" y2="137.496" gradientUnits="userSpaceOnUse">
<stop stop-color="#787878"/>
<stop offset="1" stop-color="#B4B4B4"/>
</linearGradient>
<linearGradient id="paint7_linear_1_445" x1="160.686" y1="-23.7992" x2="204.545" y2="133.571" gradientUnits="userSpaceOnUse">
<stop stop-color="#787878"/>
<stop offset="1" stop-color="#B4B4B4"/>
</linearGradient>
<linearGradient id="paint8_linear_1_445" x1="153.684" y1="-23.609" x2="205.752" y2="129.593" gradientUnits="userSpaceOnUse">
<stop stop-color="#787878"/>
<stop offset="1" stop-color="#B4B4B4"/>
</linearGradient>
<linearGradient id="paint9_linear_1_445" x1="146.677" y1="-23.3536" x2="206.899" y2="125.64" gradientUnits="userSpaceOnUse">
<stop stop-color="#787878"/>
<stop offset="1" stop-color="#B4B4B4"/>
</linearGradient>
<linearGradient id="paint10_linear_1_445" x1="139.656" y1="-23.1485" x2="208.042" y2="121.688" gradientUnits="userSpaceOnUse">
<stop stop-color="#787878"/>
<stop offset="1" stop-color="#B4B4B4"/>
</linearGradient>
<linearGradient id="paint11_linear_1_445" x1="132.671" y1="-22.9065" x2="209.235" y2="117.753" gradientUnits="userSpaceOnUse">
<stop stop-color="#787878"/>
<stop offset="1" stop-color="#B4B4B4"/>
</linearGradient>
<linearGradient id="paint12_linear_1_445" x1="125.66" y1="-22.6889" x2="210.369" y2="113.8" gradientUnits="userSpaceOnUse">
<stop stop-color="#787878"/>
<stop offset="1" stop-color="#B4B4B4"/>
</linearGradient>
<linearGradient id="paint13_linear_1_445" x1="118.665" y1="-22.5073" x2="211.539" y2="109.792" gradientUnits="userSpaceOnUse">
<stop stop-color="#787878"/>
<stop offset="1" stop-color="#B4B4B4"/>
</linearGradient>
<linearGradient id="paint14_linear_1_445" x1="111.666" y1="-22.2513" x2="212.682" y2="105.88" gradientUnits="userSpaceOnUse">
<stop stop-color="#787878"/>
<stop offset="1" stop-color="#B4B4B4"/>
</linearGradient>
<linearGradient id="paint15_linear_1_445" x1="104.63" y1="-22.0448" x2="213.796" y2="101.94" gradientUnits="userSpaceOnUse">
<stop stop-color="#787878"/>
<stop offset="1" stop-color="#B4B4B4"/>
</linearGradient>
<linearGradient id="paint16_linear_1_445" x1="97.6408" y1="-21.83" x2="214.95" y2="97.9883" gradientUnits="userSpaceOnUse">
<stop stop-color="#787878"/>
<stop offset="1" stop-color="#B4B4B4"/>
</linearGradient>
<linearGradient id="paint17_linear_1_445" x1="90.659" y1="-21.6225" x2="216.105" y2="94.0406" gradientUnits="userSpaceOnUse">
<stop stop-color="#787878"/>
<stop offset="1" stop-color="#B4B4B4"/>
</linearGradient>
<linearGradient id="paint18_linear_1_445" x1="83.6497" y1="-21.3899" x2="217.201" y2="90.1085" gradientUnits="userSpaceOnUse">
<stop stop-color="#787878"/>
<stop offset="1" stop-color="#B4B4B4"/>
</linearGradient>
<linearGradient id="paint19_linear_1_445" x1="76.6305" y1="-21.1804" x2="218.288" y2="86.1461" gradientUnits="userSpaceOnUse">
<stop stop-color="#787878"/>
<stop offset="1" stop-color="#B4B4B4"/>
</linearGradient>
<linearGradient id="paint20_linear_1_445" x1="69.6511" y1="-20.9688" x2="219.472" y2="82.238" gradientUnits="userSpaceOnUse">
<stop stop-color="#787878"/>
<stop offset="1" stop-color="#B4B4B4"/>
</linearGradient>
<linearGradient id="paint21_linear_1_445" x1="62.6552" y1="-20.7314" x2="220.567" y2="78.3441" gradientUnits="userSpaceOnUse">
<stop stop-color="#787878"/>
<stop offset="1" stop-color="#B4B4B4"/>
</linearGradient>
<clipPath id="clip0_1_445">
<rect width="406" height="360" fill="white" transform="translate(0 -151)"/>
</clipPath>
</defs>
</svg>

<svg xmlns="http://www.w3.org/2000/svg" width="245" height="209" fill="none"><g clip-path="url(#a)" opacity=".44"><g stroke-miterlimit="10" stroke-width=".8" opacity=".9"><path stroke="url(#b)" d="M404.751 82.451c3.705-51.468-83.616-99.733-195.038-107.802S4.962 1.762 1.256 53.23s83.616 99.733 195.038 107.802 204.751-27.113 208.457-78.581Z"/><path stroke="url(#c)" d="M397.333 71.723c1.454-50.317-85.693-93.674-194.649-96.84C93.728-28.284 4.224 9.938 2.769 60.255s85.694 93.674 194.65 96.84c108.955 3.167 198.46-35.055 199.914-85.372Z"/><path stroke="url(#d)" d="M198.591 153.207c106.482-1.734 192.157-43.006 191.361-92.183-.795-49.178-87.761-87.639-194.243-85.905S3.552 18.124 4.347 67.302c.796 49.177 87.762 87.638 194.244 85.905Z"/><path stroke="url(#e)" d="M199.767 149.296c104.001-6.636 185.84-50.962 182.792-99.006-3.047-48.044-89.827-81.612-193.827-74.976S2.892 26.275 5.94 74.319c3.047 48.044 89.827 81.612 193.827 74.977Z"/><path stroke="url(#f)" d="M200.87 145.352c101.529-11.529 179.543-58.89 174.249-105.783s-91.891-75.56-193.421-64.031C80.169-12.932 2.155 34.428 7.449 81.32s91.892 75.561 193.421 64.031Z"/><path stroke="url(#g)" d="M202.004 141.448c99.067-16.43 173.262-66.837 165.719-112.587s-93.969-69.517-193.037-53.086C75.619-7.795 1.424 42.613 8.967 88.362s93.969 69.517 193.037 53.086Z"/><path stroke="url(#h)" d="M203.163 137.54c96.586-21.334 166.944-74.789 157.149-119.395-9.795-44.607-96.034-63.473-192.619-42.14C71.107-2.66.749 50.794 10.544 95.4c9.795 44.607 96.034 63.473 192.619 42.14Z"/><path stroke="url(#i)" d="M204.308 133.637c94.12-26.231 160.655-82.74 148.609-126.214S254.806-50.031 160.686-23.8.031 58.94 12.076 102.415c12.046 43.475 98.111 57.454 192.232 31.222Z"/><path stroke="url(#j)" d="M205.479 129.685C297.118 98.541 359.811 38.977 345.508-3.354s-100.185-51.4-191.824-20.255C62.046 7.536-.647 67.099 13.655 109.43c14.303 42.331 100.186 51.4 191.824 20.255Z"/><path stroke="url(#k)" d="M206.597 125.762C295.77 89.719 354.646 27.119 338.1-14.058s-102.249-45.339-191.423-9.296C57.504 12.69-1.372 75.29 15.175 116.466s102.249 45.339 191.422 9.296Z"/><path stroke="url(#l)" d="M207.715 121.842c86.7-40.936 141.749-106.578 122.955-146.616s-104.314-39.31-191.014 1.626S-2.093 83.43 16.701 123.468s104.314 39.31 191.014-1.626Z"/><path stroke="url(#m)" d="M208.89 117.941C293.112 72.097 344.326 3.403 323.279-35.491S216.893-68.75 132.671-22.907C48.448 22.938-2.766 91.631 18.281 130.526s106.386 33.26 190.609-12.584Z"/><path stroke="url(#n)" d="M210.012 114.022C291.767 63.282 339.159-8.454 315.866-46.206S207.415-73.429 125.66-22.689-3.488 99.787 19.805 137.54s108.452 27.223 190.207-23.517Z"/><path stroke="url(#o)" d="M211.175 110.047c79.282-55.655 122.843-130.446 97.297-167.05s-110.526-21.16-189.807 34.496C39.384 33.148-4.178 107.939 21.368 144.543s110.526 21.16 189.807-34.496Z"/><path stroke="url(#p)" d="M212.318 106.167C289.13 45.611 328.867-32.228 301.073-67.69S188.478-82.808 111.666-22.25-4.882 116.144 22.912 151.606s112.594 15.118 189.406-45.439Z"/><path stroke="url(#q)" d="M213.436 102.256c74.335-65.45 110.238-146.333 80.192-180.658-30.045-34.325-114.663-9.093-188.998 56.357S-5.608 124.29 24.438 158.614s114.663 9.092 188.998-56.358Z"/><path stroke="url(#r)" d="M214.6 98.331c71.864-70.359 103.939-154.295 71.641-187.477-32.297-33.181-116.736-3.043-188.6 67.316S-6.3 132.465 25.999 165.647c32.297 33.182 116.737 3.043 188.601-67.316Z"/><path stroke="url(#s)" d="M215.768 94.406c69.393-75.262 97.641-162.248 63.093-194.289s-118.809 2.998-188.202 78.26C21.266 53.64-6.981 140.627 27.566 172.668c34.548 32.04 118.809-2.998 188.202-78.26Z"/><path stroke="url(#t)" d="M216.88 90.493c66.922-80.158 91.349-170.186 54.558-201.081-36.79-30.896-120.866 9.04-187.788 89.198C16.728 58.77-7.7 148.796 29.092 179.691c36.79 30.896 120.866-9.039 187.788-89.198Z"/><path stroke="url(#u)" d="M217.985 86.545c64.442-85.054 85.038-178.12 46.004-207.867C224.955-151.07 141.072-106.235 76.631-21.18S-8.408 156.939 30.626 186.687 153.544 171.6 217.985 86.545Z"/><path stroke="url(#v)" d="M219.19 82.648c61.967-89.956 78.726-186.074 37.432-214.687s-125.003 21.115-186.97 111.07C7.683 68.987-9.076 165.106 32.218 193.718s125.003-21.115 186.971-111.07Z"/><path stroke="url(#w)" d="M220.306 78.76c59.513-94.854 72.466-194.021 28.932-221.495-43.535-27.473-127.07 27.149-186.583 122.004C3.143 74.123-9.81 173.29 33.724 200.764c43.534 27.473 127.07-27.149 186.582-122.004Z"/></g></g><defs><linearGradient id="b" x1="1.256" x2="404.763" y1="53.23" y2="82.281" gradientUnits="userSpaceOnUse"><stop stop-color="#787878"/><stop offset="1" stop-color="#B4B4B4"/></linearGradient><linearGradient id="c" x1="2.769" x2="397.335" y1="60.255" y2="71.656" gradientUnits="userSpaceOnUse"><stop stop-color="#787878"/><stop offset="1" stop-color="#B4B4B4"/></linearGradient><linearGradient id="d" x1="195.709" x2="198.608" y1="-24.881" y2="153.206" gradientUnits="userSpaceOnUse"><stop stop-color="#787878"/><stop offset="1" stop-color="#B4B4B4"/></linearGradient><linearGradient id="e" x1="188.732" x2="199.832" y1="-24.686" y2="149.292" gradientUnits="userSpaceOnUse"><stop stop-color="#787878"/><stop offset="1" stop-color="#B4B4B4"/></linearGradient><linearGradient id="f" x1="181.698" x2="200.981" y1="-24.462" y2="145.34" gradientUnits="userSpaceOnUse"><stop stop-color="#787878"/><stop offset="1" stop-color="#B4B4B4"/></linearGradient><linearGradient id="g" x1="174.686" x2="202.16" y1="-24.225" y2="141.423" gradientUnits="userSpaceOnUse"><stop stop-color="#787878"/><stop offset="1" stop-color="#B4B4B4"/></linearGradient><linearGradient id="h" x1="167.693" x2="203.362" y1="-23.995" y2="137.496" gradientUnits="userSpaceOnUse"><stop stop-color="#787878"/><stop offset="1" stop-color="#B4B4B4"/></linearGradient><linearGradient id="i" x1="160.686" x2="204.545" y1="-23.799" y2="133.571" gradientUnits="userSpaceOnUse"><stop stop-color="#787878"/><stop offset="1" stop-color="#B4B4B4"/></linearGradient><linearGradient id="j" x1="153.684" x2="205.752" y1="-23.609" y2="129.593" gradientUnits="userSpaceOnUse"><stop stop-color="#787878"/><stop offset="1" stop-color="#B4B4B4"/></linearGradient><linearGradient id="k" x1="146.677" x2="206.899" y1="-23.354" y2="125.64" gradientUnits="userSpaceOnUse"><stop stop-color="#787878"/><stop offset="1" stop-color="#B4B4B4"/></linearGradient><linearGradient id="l" x1="139.656" x2="208.042" y1="-23.148" y2="121.688" gradientUnits="userSpaceOnUse"><stop stop-color="#787878"/><stop offset="1" stop-color="#B4B4B4"/></linearGradient><linearGradient id="m" x1="132.671" x2="209.235" y1="-22.907" y2="117.753" gradientUnits="userSpaceOnUse"><stop stop-color="#787878"/><stop offset="1" stop-color="#B4B4B4"/></linearGradient><linearGradient id="n" x1="125.66" x2="210.369" y1="-22.689" y2="113.8" gradientUnits="userSpaceOnUse"><stop stop-color="#787878"/><stop offset="1" stop-color="#B4B4B4"/></linearGradient><linearGradient id="o" x1="118.665" x2="211.539" y1="-22.507" y2="109.792" gradientUnits="userSpaceOnUse"><stop stop-color="#787878"/><stop offset="1" stop-color="#B4B4B4"/></linearGradient><linearGradient id="p" x1="111.666" x2="212.682" y1="-22.251" y2="105.88" gradientUnits="userSpaceOnUse"><stop stop-color="#787878"/><stop offset="1" stop-color="#B4B4B4"/></linearGradient><linearGradient id="q" x1="104.63" x2="213.796" y1="-22.045" y2="101.94" gradientUnits="userSpaceOnUse"><stop stop-color="#787878"/><stop offset="1" stop-color="#B4B4B4"/></linearGradient><linearGradient id="r" x1="97.641" x2="214.95" y1="-21.83" y2="97.988" gradientUnits="userSpaceOnUse"><stop stop-color="#787878"/><stop offset="1" stop-color="#B4B4B4"/></linearGradient><linearGradient id="s" x1="90.659" x2="216.105" y1="-21.622" y2="94.041" gradientUnits="userSpaceOnUse"><stop stop-color="#787878"/><stop offset="1" stop-color="#B4B4B4"/></linearGradient><linearGradient id="t" x1="83.65" x2="217.201" y1="-21.39" y2="90.109" gradientUnits="userSpaceOnUse"><stop stop-color="#787878"/><stop offset="1" stop-color="#B4B4B4"/></linearGradient><linearGradient id="u" x1="76.63" x2="218.288" y1="-21.18" y2="86.146" gradientUnits="userSpaceOnUse"><stop stop-color="#787878"/><stop offset="1" stop-color="#B4B4B4"/></linearGradient><linearGradient id="v" x1="69.651" x2="219.472" y1="-20.969" y2="82.238" gradientUnits="userSpaceOnUse"><stop stop-color="#787878"/><stop offset="1" stop-color="#B4B4B4"/></linearGradient><linearGradient id="w" x1="62.655" x2="220.567" y1="-20.731" y2="78.344" gradientUnits="userSpaceOnUse"><stop stop-color="#787878"/><stop offset="1" stop-color="#B4B4B4"/></linearGradient><clipPath id="a"><path fill="#fff" d="M0-151h406v360H0z"/></clipPath></defs></svg>
